Hatter-kde/actions/24/view-bank-account-savings.svg

<?xml version="1.0" encoding="UTF-8"?>
<svg viewBox="0 0 24 24" xmlns="http://www.w3.org/2000/svg">
 <defs id="defs3051">
  <style id="current-color-scheme" type="text/css">.ColorScheme-Text {
        color:#363636;
      }
      .ColorScheme-NegativeText {
        color:#da4453;
      }</style>
 </defs>
 <path class="ColorScheme-Text" d="m4 4v1 15h1 6v-1h-6v-14h14v8h1v-8-1h-15-1zm2 2v1 11h1 4v-1h-4v-10h10v3h-1v2h2v-2-4h-12zm4 4c-1.108 0-2 0.892-2 2s0.892 2 2 2 2-0.892 2-2-0.892-2-2-2zm0 1c0.554 0 1 0.446 1 1s-0.446 1-1 1-1-0.446-1-1 0.446-1 1-1zm2 3v6h8v-6h-8zm1 1h6v1h-1v2h1v1h-6v-1h1v-2h-1v-1zm3 1c-0.554 0-1 0.446-1 1s0.446 1 1 1 1-0.446 1-1-0.446-1-1-1z" fill="currentColor"/>
</svg>

<svg xmlns="http://www.w3.org/2000/svg" viewBox="0 0 24 24">
  <defs id="defs3051">
    <style type="text/css" id="current-color-scheme">
      .ColorScheme-Text {
        color:#363636;
      }
      .ColorScheme-NegativeText {
        color:#da4453;
      }
      </style>
  </defs>
  <path
     style="fill:currentColor;fill-opacity:1;stroke:none" 
     d="M 4 4 L 4 5 L 4 20 L 5 20 L 11 20 L 11 19 L 5 19 L 5 5 L 19 5 L 19 13 L 20 13 L 20 5 L 20 4 L 5 4 L 4 4 z M 6 6 L 6 7 L 6 18 L 7 18 L 11 18 L 11 17 L 7 17 L 7 7 L 17 7 L 17 10 L 16 10 L 16 12 L 18 12 L 18 10 L 18 6 L 6 6 z M 10 10 C 8.892 10 8 10.892 8 12 C 8 13.108 8.892 14 10 14 C 11.108 14 12 13.108 12 12 C 12 10.892 11.108 10 10 10 z M 10 11 C 10.554 11 11 11.446 11 12 C 11 12.554 10.554 13 10 13 C 9.446 13 9 12.554 9 12 C 9 11.446 9.446 11 10 11 z M 12 14 L 12 20 L 20 20 L 20 14 L 12 14 z M 13 15 L 19 15 L 19 16 L 18 16 L 18 18 L 19 18 L 19 19 L 13 19 L 13 18 L 14 18 L 14 16 L 13 16 L 13 15 z M 16 16 C 15.446 16 15 16.446 15 17 C 15 17.554 15.446 18 16 18 C 16.554 18 17 17.554 17 17 C 17 16.446 16.554 16 16 16 z "
     class="ColorScheme-Text"
     />
</svg>
